X: 1595
T: Jim Lynch's Set Tune
B: australian traditional tunes wiki
M:2/4
L:1/8
R: Polka
Q: 1/4=100
K:D
V:1 
|:"D"fA fA | ff fg/f/ | "A7"eA ce | "D"fA A2 | fA fA | f2- fg/f/ | "A7"eA Bc  |1 "D"d2-d>e:|2 "D"d2-dc/B/ ||
"D"AF Af | dd dc/B/ | AF Af | d2-dc/B/ | "A7"AA Ag | e2-ec/B/ | "D"AF Af | d2-dc/B/ | 
"D"AF Af | dd dc/B/ | AF Af | d2-dc/B/ | "A7"AA Ag |e2-ef/g/ | ag Bc | "D"d2dz |]
% abcbook-tune_id 6342d53a7ef8da5d5a893fa4


% abcbook-boost 0
% abcbook-tablature 
% abcbook-transpose 
% abcbook-lastupdated 1665324373000
% abcbook-soundfonts 
% abcbook-repeats 1
% NFF Book 2022
% Bush Traditions recording played by Ray Mulligan

